images/control/close.svg

<svg width="16" height="16" viewBox="0 0 16 16" fill="none" xmlns="http://www.w3.org/2000/svg"><path fill-rule="evenodd" clip-rule="evenodd" d="M12.803 4.13807c.2604-.26035.2604-.68246 0-.94281-.2603-.26035-.6824-.26035-.9428 0L7.99914 7.05633 4.13807 3.19526c-.26035-.26035-.68246-.26035-.94281 0-.26035.26035-.26035.68246 0 .94281l3.86107 3.86107-3.86107 3.86106c-.26035.2604-.26035.6825 0 .9428.26035.2604.68246.2604.94281 0l3.86107-3.86105L11.8602 12.803c.2604.2604.6825.2604.9428 0 .2604-.2603.2604-.6824 0-.9428L8.94195 7.99914 12.803 4.13807Z" fill="#2D3440"/></svg>

<svg width="16" height="16" viewBox="0 0 16 16" fill="none" xmlns="http://www.w3.org/2000/svg">
<path fill-rule="evenodd" clip-rule="evenodd" d="M12.803 4.13807C13.0634 3.87772 13.0634 3.45561 12.803 3.19526C12.5427 2.93491 12.1206 2.93491 11.8602 3.19526L7.99914 7.05633L4.13807 3.19526C3.87772 2.93491 3.45561 2.93491 3.19526 3.19526C2.93491 3.45561 2.93491 3.87772 3.19526 4.13807L7.05633 7.99914L3.19526 11.8602C2.93491 12.1206 2.93491 12.5427 3.19526 12.803C3.45561 13.0634 3.87772 13.0634 4.13807 12.803L7.99914 8.94195L11.8602 12.803C12.1206 13.0634 12.5427 13.0634 12.803 12.803C13.0634 12.5427 13.0634 12.1206 12.803 11.8602L8.94195 7.99914L12.803 4.13807Z" fill="#2D3440"/>
</svg>
